dist/images/curbside.svg

<?xml version="1.0" encoding="UTF-8"?>
<svg width="16px" height="12px" viewBox="0 0 16 12" version="1.1" xmlns="http://www.w3.org/2000/svg" xmlns:xlink="http://www.w3.org/1999/xlink">
    <!-- Generator: Sketch 62 (91390) - https://sketch.com -->
    <title>curbside</title>
    <desc>Created with Sketch.</desc>
    <g id="Design-V1" stroke="none" stroke-width="1" fill="none" fill-rule="evenodd">
        <g id="Shelf-Packing-List" transform="translate(-107.000000, -511.000000)" fill="#53C999" fill-rule="nonzero">
            <path d="M122.07263,514.693628 L120.357604,514.693628 L119.880938,513.501961 C119.391094,512.276779 118.222057,511.485294 116.902344,511.485294 L113.264323,511.485294 C111.944896,511.485294 110.775573,512.276779 110.285443,513.501961 L109.808776,514.693628 L108.094036,514.693628 C107.870312,514.693628 107.706172,514.903888 107.760599,515.120737 L107.932474,515.808237 C107.970573,515.961206 108.108073,516.068628 108.265911,516.068628 L108.840833,516.068628 C108.45612,516.404643 108.208333,516.893055 108.208333,517.443628 L108.208333,518.818628 C108.208333,519.280398 108.384792,519.697195 108.666667,520.019747 L108.666667,521.568628 C108.666667,522.074799 109.077161,522.485294 109.583333,522.485294 L110.5,522.485294 C111.006172,522.485294 111.416667,522.074799 111.416667,521.568628 L111.416667,520.651961 L118.75,520.651961 L118.75,521.568628 C118.75,522.074799 119.160495,522.485294 119.666667,522.485294 L120.583333,522.485294 C121.089505,522.485294 121.5,522.074799 121.5,521.568628 L121.5,520.019747 C121.781875,519.697482 121.958333,519.280685 121.958333,518.818628 L121.958333,517.443628 C121.958333,516.893055 121.710547,516.404643 121.32612,516.068628 L121.901042,516.068628 C122.05888,516.068628 122.19638,515.961206 122.234479,515.808237 L122.406354,515.120737 C122.460495,514.903888 122.296354,514.693628 122.07263,514.693628 Z M111.987578,514.182872 C112.196406,513.660945 112.702005,513.318628 113.264323,513.318628 L116.902344,513.318628 C117.464661,513.318628 117.97026,513.660945 118.179089,514.182872 L118.75,515.610294 L111.416667,515.610294 L111.987578,514.182872 Z M110.5,518.812898 C109.95,518.812898 109.583333,518.447378 109.583333,517.899096 C109.583333,517.350815 109.95,516.985294 110.5,516.985294 C111.05,516.985294 111.875,517.807716 111.875,518.355997 C111.875,518.904279 111.05,518.812898 110.5,518.812898 Z M119.666667,518.812898 C119.116667,518.812898 118.291667,518.904279 118.291667,518.355997 C118.291667,517.807716 119.116667,516.985294 119.666667,516.985294 C120.216667,516.985294 120.583333,517.350815 120.583333,517.899096 C120.583333,518.447378 120.216667,518.812898 119.666667,518.812898 L119.666667,518.812898 Z" id="curbside"></path>
        </g>
    </g>
</svg>

<svg width="16" height="12" viewBox="0 0 16 12" version="1.1" xmlns="http://www.w3.org/2000/svg"><g id="Design-V1" stroke="none" stroke-width="1" fill="none" fill-rule="evenodd"><g id="Shelf-Packing-List" transform="translate(-107 -511)" fill="#53C999" fill-rule="nonzero"><path d="M122.073 514.694h-1.715l-.477-1.192a3.192 3.192 0 00-2.979-2.017h-3.638c-1.32 0-2.488.792-2.979 2.017l-.476 1.192h-1.715a.344.344 0 00-.333.427l.171.687c.039.153.176.26.334.26h.575a1.82 1.82 0 00-.633 1.376v1.375c0 .461.177.878.459 1.2v1.55c0 .506.41.916.916.916h.917c.506 0 .917-.41.917-.916v-.917h7.333v.917c0 .506.41.916.917.916h.916c.507 0 .917-.41.917-.916v-1.55c.282-.322.458-.738.458-1.2v-1.375c0-.55-.247-1.04-.632-1.375h.575a.344.344 0 00.333-.26l.172-.688a.344.344 0 00-.333-.427zm-10.085-.511a1.375 1.375 0 011.276-.864h3.638c.563 0 1.068.342 1.277.864l.571 1.427h-7.333l.57-1.427zm-1.488 4.63c-.55 0-.917-.366-.917-.914s.367-.914.917-.914 1.375.823 1.375 1.371-.825.457-1.375.457zm9.167 0c-.55 0-1.375.091-1.375-.457s.825-1.37 1.375-1.37.916.365.916.913-.366.914-.916.914z" id="curbside"/></g></g></svg>
